assets/features/channel/east-asia/FamilyMart.svg

<svg width="80" height="80" viewBox="0 0 80 80" fill="none" xmlns="http://www.w3.org/2000/svg">
<g clip-path="url(#clip0_2497_22789)">
<rect width="200" height="200" fill="white"/>
<rect width="80" height="32.8" fill="#54A857"/>
<rect y="50" width="80" height="30" fill="#37A8DC"/>
<path fill-rule="evenodd" clip-rule="evenodd" d="M0 34.6447H80V29.374H0V34.6447Z" fill="#54A857"/>
<path fill-rule="evenodd" clip-rule="evenodd" d="M8.98833 46.8118H10.8961L10.8979 42.5848H15.0142V40.6753H10.8961V38.8067H15.0502V36.8962H8.98833V46.8118ZM20.8599 42.1729C20.8599 41.7413 20.9236 40.8528 19.8011 40.2264C18.5912 39.5509 16.6593 40.078 16.0976 40.3024V41.7978C16.9142 41.2902 18.0777 41.1295 18.7541 41.4614C19.3914 41.7736 19.3441 42.3076 19.2202 42.5184C19.0705 42.481 18.5211 42.2789 17.4873 42.3772C16.2173 42.5011 15.3178 43.4538 15.4794 45.1098C15.6196 46.5295 17.1268 46.8113 17.7823 46.8113C18.679 46.8113 19.3782 46.3124 19.3782 46.3124C19.4146 46.525 19.4597 46.6798 19.5639 46.8113H21.2491C20.9873 46.5259 20.8676 45.9141 20.8676 45.672C20.8681 45.4298 20.8599 42.6021 20.8599 42.1729ZM18.1815 45.4767C17.5456 45.5049 17.1327 45.0661 17.1327 44.4661C17.1327 43.8685 17.694 43.4838 18.2052 43.4838C18.867 43.4838 19.2025 43.7319 19.2025 43.7319C19.2025 43.7319 19.2162 44.8308 19.2403 45.0297C18.9908 45.2659 18.7801 45.4512 18.1815 45.4767ZM61.8358 42.1729C61.8358 41.7413 61.9018 40.8528 60.7798 40.2264C59.568 39.5509 57.6371 40.078 57.0758 40.3024V41.7978C57.8929 41.2902 59.0559 41.1295 59.7314 41.4614C60.3678 41.7736 60.3227 42.3076 60.1989 42.5184C60.0478 42.481 59.4984 42.2789 58.4651 42.3772C57.1928 42.5011 56.2938 43.4538 56.4577 45.1098C56.5983 46.5295 58.1041 46.8113 58.7596 46.8113C59.6577 46.8113 60.3546 46.3124 60.3546 46.3124C60.3947 46.525 60.4374 46.6798 60.544 46.8113H62.2259C61.9637 46.5259 61.8445 45.9141 61.8445 45.672C61.8445 45.4298 61.8358 42.6021 61.8358 42.1729ZM59.1588 45.4767C58.5224 45.5049 58.1105 45.0661 58.1105 44.4661C58.1105 43.8685 58.6699 43.4838 59.182 43.4838C59.8434 43.4838 60.1803 43.7319 60.1803 43.7319C60.1803 43.7319 60.1916 44.8308 60.2185 45.0297C59.9677 45.2659 59.7578 45.4512 59.1588 45.4767ZM29.5874 39.9611C28.1453 39.9228 27.5103 40.7499 27.5103 40.7499C27.5103 40.7499 26.9477 39.9651 25.6212 39.9651C24.6676 39.9651 24.0713 40.5442 24.0713 40.5442V40.0398H22.2719L22.2751 46.8113H24.069V42.1911C24.1587 41.6353 25.3244 41.3872 25.68 41.7413C26.035 42.0982 26.0509 42.2106 26.0509 42.679V46.8118H27.8676V42.1733C27.8676 41.9352 28.6824 41.3804 29.3056 41.6872C29.8628 41.9598 29.8873 42.2293 29.8873 42.6217V46.8122H31.6266V42.3599C31.6262 41.9111 31.7222 40.0134 29.5874 39.9611ZM33.0673 46.8118H34.7884V39.9706H33.0673V46.8118ZM36.282 46.8118H38.0021V36.9026H36.282V46.8118ZM42.3224 43.8562L40.726 39.9611H38.9185L41.4685 46.1973L40.5854 48.5984L42.383 48.6089L45.4901 39.9624H43.7317L42.3224 43.8562ZM50.8515 39.9538L48.2586 36.9017H46.4265V46.8118H48.1485V39.6643L50.8515 42.8607L53.5353 39.677V46.8118H55.2673V36.9017H53.426L50.8515 39.9538ZM64.8565 40.7704V39.9651H63.1318V46.8113H64.8529V42.435C64.8529 42.435 65.9367 40.9766 67.2659 41.9862V40.1527C66.6295 39.8909 65.807 39.7039 64.8565 40.7704ZM72.0564 41.4996V39.9624H70.5041V37.3837L68.8718 38.057V39.9547H67.8458V41.4996H68.8754V44.5676C68.8754 45.448 69.3402 46.3384 70.1486 46.6256C70.8437 46.8714 71.2484 46.8928 72.0386 46.6524V45.0843C71.6972 45.174 70.8383 45.3215 70.607 44.6742C70.4595 44.259 70.5064 44.1179 70.5064 43.6318V41.4996H72.0564ZM33.9377 36.8557C33.7909 36.8527 33.6451 36.879 33.5086 36.9331C33.3721 36.9872 33.2479 37.068 33.143 37.1708C33.0382 37.2735 32.9549 37.3961 32.898 37.5314C32.8412 37.6668 32.8119 37.8121 32.8119 37.9589C32.8119 38.1057 32.8412 38.251 32.898 38.3863C32.9549 38.5216 33.0382 38.6442 33.143 38.747C33.2479 38.8497 33.3721 38.9305 33.5086 38.9846C33.6451 39.0387 33.7909 39.065 33.9377 39.062C34.2264 39.0562 34.5013 38.9374 34.7034 38.7311C34.9055 38.5249 35.0187 38.2476 35.0187 37.9589C35.0187 37.6701 34.9055 37.3929 34.7034 37.1866C34.5013 36.9804 34.2264 36.8616 33.9377 36.8557ZM80 49.0186V50.6254H0V49.0186H80Z" fill="#37A8DC"/>
</g>
<defs>
<clipPath id="clip0_2497_22789">
<rect width="80" height="80" rx="8" fill="white"/>
</clipPath>
</defs>
</svg>

<svg xmlns="http://www.w3.org/2000/svg" width="80" height="80" fill="none" viewBox="0 0 80 80"><g clip-path="url(#a)"><path fill="#fff" d="M0 0h200v200H0z"/><path fill="#54a857" d="M0 0h80v32.8H0z"/><path fill="#37a8dc" d="M0 50h80v30H0z"/><path fill="#54a857" fill-rule="evenodd" d="M0 34.645h80v-5.271H0z" clip-rule="evenodd"/><path fill="#37a8dc" fill-rule="evenodd" d="M8.988 46.812h1.908l.002-4.227h4.116v-1.91h-4.118v-1.868h4.154v-1.91H8.988zm11.872-4.64c0-.43.064-1.32-1.059-1.946-1.21-.675-3.142-.148-3.703.076v1.496c.816-.508 1.98-.669 2.656-.337.637.313.59.847.466 1.057-.15-.037-.699-.24-1.733-.14-1.27.123-2.17 1.076-2.008 2.732.14 1.42 1.648 1.701 2.303 1.701.897 0 1.596-.499 1.596-.499.037.213.082.368.186.5h1.685c-.262-.286-.381-.898-.381-1.14zm-2.678 3.305c-.636.028-1.05-.41-1.05-1.01 0-.599.562-.983 1.073-.983.662 0 .998.248.998.248s.013 1.099.037 1.298c-.25.236-.46.421-1.058.447m43.654-3.304c0-.432.066-1.32-1.056-1.947-1.212-.675-3.143-.148-3.704.076v1.496c.817-.508 1.98-.669 2.655-.337.637.313.592.847.468 1.057-.151-.037-.7-.24-1.734-.14-1.272.123-2.171 1.076-2.007 2.732.14 1.42 1.646 1.701 2.302 1.701.898 0 1.595-.499 1.595-.499.04.213.082.368.189.5h1.682c-.262-.286-.382-.898-.382-1.14zm-2.677 3.304c-.637.028-1.048-.41-1.048-1.01 0-.599.559-.983 1.071-.983.661 0 .998.248.998.248s.012 1.099.038 1.298c-.25.236-.46.421-1.06.447M29.587 39.96c-1.442-.038-2.077.789-2.077.789s-.562-.785-1.889-.785c-.953 0-1.55.58-1.55.58v-.505h-1.8l.004 6.771h1.794v-4.62c.09-.556 1.255-.804 1.611-.45.355.357.37.47.37.938v4.133h1.818v-4.639c0-.238.814-.793 1.438-.486.557.273.581.542.581.935v4.19h1.74V42.36c0-.449.095-2.347-2.04-2.399m3.48 6.85h1.721v-6.84h-1.72zm3.215 0h1.72v-9.908h-1.72zm6.04-2.955-1.596-3.895h-1.807l2.55 6.236-.884 2.401 1.798.01 3.107-8.646h-1.758zm8.53-3.902-2.593-3.052h-1.833v9.91h1.722v-7.148l2.703 3.197 2.684-3.184v7.135h1.732v-9.91h-1.841zm14.005.816v-.805h-1.725v6.846h1.72v-4.376s1.085-1.458 2.414-.449v-1.833c-.637-.262-1.459-.45-2.41.617m7.2.73v-1.538h-1.553v-2.578l-1.632.673v1.898h-1.026V41.5h1.03v3.068c0 .88.464 1.77 1.273 2.058.695.245 1.1.267 1.89.026v-1.568c-.342.09-1.2.237-1.432-.41-.147-.415-.1-.556-.1-1.042V41.5zm-38.12-4.644a1.103 1.103 0 1 0-.044 2.205 1.103 1.103 0 0 0 .045-2.205M80 49.019v1.606H0V49.02z" clip-rule="evenodd"/></g><defs><clipPath id="a"><rect width="80" height="80" fill="#fff" rx="8"/></clipPath></defs></svg>
